libs/ui/packages/crypto-icons/src/svg/AMB.svg

<svg width="24" height="24" viewBox="0 0 24 24" fill="none">
<path d="M20.25 12.0112V12.0173C20.2475 12.0771 20.2314 12.1356 20.2028 12.1882C20.0977 12.3795 17.5845 16.875 12.0007 16.875C6.417 16.875 3.90225 12.3795 3.798 12.1882C3.76911 12.1357 3.75269 12.0772 3.75 12.0173V11.9835L3.75075 11.9662C3.75512 11.9169 3.76886 11.8687 3.79125 11.8245L3.79275 11.8215L3.79725 11.8125C3.90225 11.6205 6.41625 7.125 12 7.125C17.5837 7.125 20.0977 11.6213 20.202 11.8125L20.2065 11.8215L20.2087 11.8253C20.2308 11.8693 20.2443 11.9172 20.2485 11.9662V12.0007L20.25 12.0112ZM19.4175 12C18.9952 11.3445 17.4082 9.15525 14.5312 8.27475C15.4575 8.92371 16.1091 9.89422 16.359 10.9973C16.5563 11.0423 16.698 11.2192 16.7017 11.4247C16.7055 11.6302 16.5705 11.8118 16.374 11.8643C16.1775 11.9167 15.9727 11.8268 15.8752 11.6468C15.8281 11.5591 15.8113 11.4583 15.8274 11.3601C15.8435 11.2618 15.8918 11.1717 15.9645 11.1038C15.594 9.4365 14.223 8.14875 12.534 7.9245C12.5213 7.92296 12.5087 7.9202 12.4965 7.91625C12.1655 7.8985 11.8338 7.8985 11.5027 7.91625C11.4905 7.92019 11.478 7.92295 11.4653 7.9245C10.8071 8.01309 10.181 8.263 9.64275 8.652C9.61653 8.67063 9.58627 8.6828 9.55445 8.68751C9.52263 8.69223 9.49014 8.68934 9.45965 8.67911C9.42915 8.66887 9.40151 8.65156 9.37898 8.6286C9.35645 8.60564 9.33966 8.57768 9.33 8.547C9.31688 8.50541 9.31714 8.46076 9.33072 8.41932C9.34431 8.37788 9.37055 8.34175 9.40575 8.316C9.42388 8.30284 9.44213 8.28984 9.4605 8.277C6.588 9.15975 5.004 11.3445 4.5825 12C5.00025 12.6502 6.5625 14.805 9.39 15.7013C8.45743 15.0204 7.82024 14.0089 7.60875 12.8738C7.41825 12.8025 7.30125 12.609 7.32375 12.4042C7.34625 12.1995 7.50375 12.0367 7.70475 12.0105C7.90575 11.9843 8.09925 12.1005 8.17275 12.2933C8.20825 12.3863 8.2119 12.4886 8.18313 12.584C8.15436 12.6794 8.0948 12.7625 8.01375 12.8205C8.33625 14.478 9.62475 15.7657 11.2628 16.068C11.7539 16.1084 12.2476 16.1084 12.7388 16.068C13.3499 15.9532 13.9261 15.6985 14.4225 15.324C14.4511 15.3018 14.485 15.2877 14.5209 15.283C14.5568 15.2784 14.5933 15.2835 14.6265 15.2977C14.6599 15.3126 14.6888 15.3359 14.7103 15.3654C14.7318 15.3949 14.7452 15.4295 14.7492 15.4658C14.7531 15.5021 14.7475 15.5388 14.7328 15.5722C14.7181 15.6056 14.6949 15.6346 14.6655 15.6562L14.6002 15.705C17.4337 14.8103 18.999 12.651 19.4175 12ZM15.615 12.0128C15.615 14.0355 13.9935 15.6818 12 15.6818C10.0065 15.6818 8.385 14.0355 8.385 12.0128C8.385 9.99 10.0065 8.3445 12 8.3445C13.9935 8.3445 15.615 9.98925 15.615 12.0128ZM15.207 12.0128C15.207 10.2188 13.7685 8.7585 12 8.7585C10.2315 8.7585 8.79225 10.218 8.79225 12.0135C8.79225 13.809 10.2315 15.267 12 15.267C13.7685 15.267 15.207 13.8075 15.207 12.0128ZM13.182 11.0055C13.182 11.3985 12.9878 11.7645 12.6645 11.9805L12.987 13.9507C12.9944 13.9857 12.9938 14.0218 12.9852 14.0565C12.9765 14.0911 12.9602 14.1233 12.9373 14.1507C12.9144 14.1781 12.8855 14.1999 12.853 14.2145C12.8204 14.2291 12.7849 14.2361 12.7493 14.235H11.3093C11.2736 14.2361 11.2381 14.2291 11.2055 14.2145C11.1729 14.1999 11.144 14.1781 11.1211 14.1507C11.0981 14.1234 11.0817 14.0911 11.0729 14.0565C11.0642 14.0219 11.0635 13.9857 11.0707 13.9507L11.3918 11.9805C10.9328 11.6722 10.7527 11.0768 10.962 10.56C11.1713 10.0432 11.712 9.74925 12.252 9.85725C12.7928 9.966 13.182 10.4467 13.182 11.0055ZM16.4423 12.5377C16.3375 13.4773 15.9415 14.3605 15.3097 15.0637C15.2859 15.091 15.2553 15.1114 15.2209 15.1228C15.1865 15.1342 15.1498 15.1361 15.1144 15.1285C15.079 15.1208 15.0463 15.1038 15.0197 15.0792C14.9932 15.0547 14.9737 15.0234 14.9633 14.9888C14.9523 14.9538 14.9507 14.9165 14.9586 14.8808C14.9665 14.845 14.9836 14.8119 15.0082 14.7847C15.5822 14.1458 15.942 13.3433 16.0372 12.4897C16.0433 12.4358 16.0704 12.3865 16.1127 12.3525C16.155 12.3185 16.209 12.3026 16.263 12.3082C16.3755 12.3217 16.455 12.4245 16.4423 12.5377ZM9.03975 8.88675C9.07915 8.92476 9.10202 8.97674 9.10342 9.03146C9.10483 9.08619 9.08465 9.13927 9.04725 9.17925C8.47193 9.79504 8.09942 10.5725 7.98 11.4067C7.97202 11.4605 7.94309 11.5089 7.89951 11.5414C7.85594 11.5738 7.80129 11.5877 7.7475 11.58C7.69375 11.5713 7.64559 11.5418 7.61344 11.4979C7.5813 11.4539 7.56775 11.3991 7.57575 11.3453C7.70751 10.4275 8.11773 9.57223 8.751 8.895C8.76934 8.87534 8.79142 8.85953 8.81594 8.84849C8.84045 8.83746 8.86692 8.83141 8.8938 8.83071C8.92068 8.83002 8.94743 8.83468 8.97249 8.84443C8.99755 8.85418 9.02041 8.86882 9.03975 8.8875V8.88675Z" fill="#3C5BE0"/>
</svg>

<svg width="24" height="24" viewBox="0 0 24 24" fill="none"><path fill="#3c5be0" d="M20.25 12.011v.006a.4.4 0 0 1-.047.171c-.105.191-2.619 4.687-8.202 4.687s-8.099-4.495-8.203-4.687a.4.4 0 0 1-.048-.17v-.052a.4.4 0 0 1 .041-.141l.002-.003.004-.01c.105-.191 2.62-4.687 8.203-4.687 5.584 0 8.098 4.496 8.202 4.688l.004.008.003.004a.4.4 0 0 1 .04.141v.035zM19.418 12c-.423-.655-2.01-2.845-4.887-3.725a4.55 4.55 0 0 1 1.828 2.722.445.445 0 0 1 .343.428.438.438 0 0 1-.826.222.45.45 0 0 1 .088-.543c-.37-1.667-1.741-2.955-3.43-3.18l-.038-.008a9 9 0 0 0-.993 0l-.038.008a4 4 0 0 0-1.822.728.204.204 0 0 1-.312-.233.2.2 0 0 1 .075-.103l.054-.039C6.589 9.16 5.004 11.345 4.583 12c.418.65 1.98 2.805 4.808 3.701a4.53 4.53 0 0 1-1.781-2.827.45.45 0 0 1-.285-.47.444.444 0 0 1 .38-.393.44.44 0 0 1 .469.282.45.45 0 0 1-.16.527 4.08 4.08 0 0 0 3.25 3.248c.49.04.985.04 1.476 0a4 4 0 0 0 1.683-.744.2.2 0 0 1 .204-.026.21.21 0 0 1 .04.358l-.066.049C17.434 14.81 19 12.651 19.418 12m-3.803.013c0 2.023-1.622 3.669-3.615 3.669s-3.615-1.646-3.615-3.67c0-2.022 1.622-3.668 3.615-3.668s3.615 1.645 3.615 3.669m-.408 0c0-1.794-1.439-3.254-3.207-3.254s-3.208 1.459-3.208 3.255 1.44 3.253 3.208 3.253 3.207-1.46 3.207-3.254m-2.025-1.008c0 .393-.194.76-.518.975l.323 1.97a.236.236 0 0 1-.238.285h-1.44a.236.236 0 0 1-.238-.284l.32-1.97a1.18 1.18 0 0 1-.429-1.421c.21-.517.75-.81 1.29-.703.54.109.93.59.93 1.149m3.26 1.533a4.53 4.53 0 0 1-1.132 2.526.202.202 0 0 1-.347-.075.21.21 0 0 1 .045-.204 4.1 4.1 0 0 0 1.03-2.295.206.206 0 0 1 .225-.182.207.207 0 0 1 .18.23M9.04 8.887a.21.21 0 0 1 .007.292 4.1 4.1 0 0 0-1.067 2.228.206.206 0 0 1-.233.173.207.207 0 0 1-.171-.235 4.53 4.53 0 0 1 1.175-2.45.203.203 0 0 1 .289-.008"/></svg>
